X:630
T:A pocky Concetto indeede.
C:John Malchair's Third Collection of Tunes
F:https://www.vwml.org/record/Malchair/3619/p63
F:www.vwml.org/topics/historic-dance-and-tune-books/Malchair
Z:Eric Conrad Feb 2020
N:NB1 A part - two measures in MS - played twice here
N:NB2 B part - no repeat in MS, added repeat here
M:C
L:1/8
K:Gmin
P:A
D | G>G A>F B<G c>A | d<B A>G G3D | "_NB1"G>G A>F B<G c>A | d<B A>G G3 ||
P:B
|: "_NB2"g | f<d e>c d<B c>A | B<G A<F B3B | c<A d>A ^F<D B>c | d<B c<A G3 :|


